raiden-dapp/src/assets/sent_transfer.svg

<svg width="35" height="35" viewBox="0 0 35 35" fill="none" xmlns="http://www.w3.org/2000/svg">
<path fill-rule="evenodd" clip-rule="evenodd" d="M1.08993 5.46009C0 7.59921 0 10.3995 0 16V19C0 24.6005 0 27.4008 1.08993 29.5399C2.04867 31.4215 3.57847 32.9513 5.46009 33.9101C7.59921 35 10.3995 35 16 35H19C24.6005 35 27.4008 35 29.5399 33.9101C31.4215 32.9513 32.9513 31.4215 33.9101 29.5399C35 27.4008 35 24.6005 35 19V16C35 10.3995 35 7.59921 33.9101 5.46009C32.9513 3.57847 31.4215 2.04867 29.5399 1.08993C27.4008 0 24.6005 0 19 0H16C10.3995 0 7.59921 0 5.46009 1.08993C3.57847 2.04867 2.04867 3.57847 1.08993 5.46009ZM14.5283 13.8346C14.5283 13.3173 14.9477 12.8979 15.465 12.8979H20.5134C20.588 12.8976 20.6531 12.8977 20.7058 12.8978C20.7278 12.8979 20.7477 12.8979 20.7652 12.8979C21.1422 12.8984 21.4339 13.1049 21.586 13.3855C21.6204 13.4484 21.6478 13.5157 21.6672 13.5863C21.6955 13.6878 21.7073 13.794 21.7005 13.9003V19.1334C21.7005 19.6507 21.2811 20.0701 20.7638 20.0701C20.2464 20.0701 19.8271 19.6507 19.8271 19.1334V16.096L13.478 22.4451C13.1122 22.8109 12.5191 22.8109 12.1533 22.4451C11.7875 22.0793 11.7875 21.4862 12.1533 21.1204L18.5024 14.7713H15.465C14.9477 14.7713 14.5283 14.3519 14.5283 13.8346Z" fill="white" fill-opacity="0.2"/>
</svg>

<?xml version="1.0" encoding="utf-8"?>
<!-- Generator: Adobe Illustrator 23.0.3, SVG Export Plug-In . SVG Version: 6.00 Build 0)  -->
<svg version="1.1" id="Layer_1" xmlns="http://www.w3.org/2000/svg" xmlns:xlink="http://www.w3.org/1999/xlink" x="0px" y="0px"
	 viewBox="0 0 35 35" style="enable-background:new 0 0 35 35;" xml:space="preserve">
<style type="text/css">
	.st0{fill-rule:evenodd;clip-rule:evenodd;fill:#3F3F3F;fill-opacity:0.2;}
</style>
<path class="st0" d="M1.1,5.5C0,7.6,0,10.4,0,16v3c0,5.6,0,8.4,1.1,10.5c1,1.9,2.5,3.4,4.4,4.4C7.6,35,10.4,35,16,35h3
	c5.6,0,8.4,0,10.5-1.1c1.9-1,3.4-2.5,4.4-4.4C35,27.4,35,24.6,35,19v-3c0-5.6,0-8.4-1.1-10.5c-1-1.9-2.5-3.4-4.4-4.4
	C27.4,0,24.6,0,19,0h-3C10.4,0,7.6,0,5.5,1.1C3.6,2,2,3.6,1.1,5.5z M14.5,13.8c0-0.5,0.4-0.9,0.9-0.9h5c0.1,0,0.1,0,0.2,0
	c0,0,0,0,0.1,0c0.4,0,0.7,0.2,0.8,0.5c0,0.1,0.1,0.1,0.1,0.2c0,0.1,0,0.2,0,0.3v5.2c0,0.5-0.4,0.9-0.9,0.9c-0.5,0-0.9-0.4-0.9-0.9
	v-3l-6.3,6.3c-0.4,0.4-1,0.4-1.3,0c-0.4-0.4-0.4-1,0-1.3l6.3-6.3h-3C14.9,14.8,14.5,14.4,14.5,13.8z"/>
</svg>
